packages/IcoMoon/src/UserPlusIcon/index.svg

<svg version="1.1" xmlns="http://www.w3.org/2000/svg" width="16" height="16" viewBox="0 0 16 16">
<path d="M6 11.5c0-2.363 1.498-4.383 3.594-5.159 0.254-0.571 0.406-1.206 0.406-1.841 0-2.485 0-4.5-3-4.5s-3 2.015-3 4.5c0 1.548 0.898 3.095 2 3.716v0.825c-3.392 0.277-6 1.944-6 3.959h6.208c-0.135-0.477-0.208-0.98-0.208-1.5z"></path>
<path d="M11.5 7c-2.485 0-4.5 2.015-4.5 4.5s2.015 4.5 4.5 4.5c2.485 0 4.5-2.015 4.5-4.5s-2.015-4.5-4.5-4.5zM14 12h-2v2h-1v-2h-2v-1h2v-2h1v2h2v1z"></path>
</svg>

<svg xmlns="http://www.w3.org/2000/svg" viewBox="0 0 16 16">
  <path d="M6 11.5a5.508 5.508 0 013.594-5.159A4.574 4.574 0 0010 4.5C10 2.015 10 0 7 0S4 2.015 4 4.5c0 1.548.898 3.095 2 3.716v.825C2.608 9.318 0 10.985 0 13h6.208A5.5 5.5 0 016 11.5z"/>
  <path d="M11.5 7a4.5 4.5 0 100 9 4.5 4.5 0 000-9zm2.5 5h-2v2h-1v-2H9v-1h2V9h1v2h2v1z"/>
</svg>
